<?xml version="1.0" encoding="UTF-8"?>
<map version="1.10" tiledversion="1.11.2" orientation="orthogonal" renderorder="right-down" width="120" height="68" tilewidth="16" tileheight="16" infinite="0" nextlayerid="4" nextobjectid="1">
 <tileset firstgid="1" source="atlas_floor-16x16.tsx"/>
 <tileset firstgid="50" source="atlas_walls_high-16x32.tsx"/>
 <layer id="1" name="floor" width="120" height="68">
  <data encoding="csv">
10,1,16,8,2,7,2,9,9,16,13,1,16,4,1,7,13,15,3,10,14,7,8,9,15,1,13,2,9,8,16,4,15,2,10,14,15,13,9,3,16,3,2,10,9,8,3,8,16,2,3,16,9,15,4,1,7,4,2,16,1,4,3,9,1,9,13,16,8,1,2,8,10,15,16,9,15,1,16,7,8,2,4,4,10,7,13,7,7,13,13,10,7,16,4,4,13,3,1,1,16,14,8,8,7,15,1,3,8,14,14,3,13,1,3,9,8,3,10,15,
1,4,2,2,13,4,16,16,16,2,10,1,1,4,3,14,16,3,1,2,16,2,4,13,7,1,9,1,10,7,15,13,15,4,16,8,3,9,4,9,13,10,1,7,16,15,4,4,9,13,9,10,14,16,1,13,8,9,16,7,8,8,7,8,3,9,16,14,3,16,15,3,7,16,10,16,13,14,8,7,10,13,7,16,16,14,1,4,3,8,10,7,15,9,8,2,7,15,10,13,14,10,9,8,1,7,1,15,15,14,2,3,7,3,4,4,13,10,7,15,
15,9,9,9,8,8,13,13,10,1,2,4,16,7,4,10,2,9,15,7,15,2,13,4,16,14,14,3,2,1,3,3,3,4,10,8,3,14,2,2,1,9,4,13,9,8,10,2,8,15,10,3,7,13,1,9,2,13,8,13,9,9,9,13,14,2,2,14,16,3,2,7,16,10,13,13,10,9,3,14,7,14,1,2,2,4,8,4,8,15,7,2,2,1,14,7,16,14,4,3,7,8,14,2,10,8,14,8,8,15,14,10,13,10,7,15,9,9,2,13,
15,4,14,9,8,10,2,14,14,4,7,8,14,16,10,10,9,14,8,4,16,7,9,4,7,4,13,13,2,10,15,9,10,10,14,2,13,1,8,15,7,8,3,10,15,9,7,14,2,15,4,9,16,7,13,4,2,4,16,2,13,1,2,8,4,3,3,2,14,16,16,9,8,7,13,15,7,9,7,8,7,15,9,14,4,2,8,14,13,4,4,8,8,16,7,4,7,4,14,9,4,7,16,2,15,8,2,10,13,7,10,3,4,9,8,10,13,4,15,2,
16,15,10,16,10,13,14,1,4,10,13,2,14,10,4,15,7,14,16,14,15,7,16,1,3,2,14,15,9,2,3,10,2,13,15,14,7,1,8,2,2,16,13,8,10,16,15,7,14,3,14,15,14,1,3,9,1,2,10,13,8,13,13,4,4,3,9,3,4,1,15,9,8,13,14,2,15,14,2,14,13,14,1,14,16,9,16,13,3,3,1,7,9,15,1,7,7,10,10,10,16,14,8,2,16,14,14,1,16,2,7,16,7,10,4,16,10,14,15,2,
14,8,16,8,16,3,3,4,7,1,16,13,3,15,4,1,4,10,15,14,14,2,2,1,13,8,8,13,4,15,10,14,15,1,3,15,15,16,4,7,2,15,16,3,16,13,15,14,15,10,8,14,9,10,3,7,2,16,13,13,14,15,15,9,15,13,1,9,8,13,2,4,16,16,7,14,14,16,10,15,8,1,4,3,10,9,10,14,8,9,14,9,3,7,4,16,14,15,2,15,3,10,3,2,2,14,10,13,10,15,2,10,10,3,14,4,8,10,2,14,
15,3,16,10,13,9,2,14,13,7,4,2,14,2,3,10,7,9,15,2,16,4,13,2,2,1,14,13,13,14,14,7,10,8,7,15,13,14,1,1,7,10,8,3,8,4,3,3,3,14,3,1,4,10,2,10,1,7,10,16,10,4,4,16,16,7,2,10,15,9,15,7,2,7,13,13,16,7,16,7,9,14,13,2,4,4,8,15,8,16,16,4,13,3,7,2,13,8,1,4,7,9,14,9,10,2,7,16,7,1,8,4,2,9,7,16,2,1,10,7,
7,9,16,4,13,10,16,15,7,13,4,2,3,15,13,3,16,2,2,16,3,13,14,16,4,3,4,15,4,13,10,15,15,13,10,13,4,4,14,2,15,1,7,1,16,8,8,1,10,15,16,2,2,13,1,9,16,16,9,16,4,14,10,10,14,8,7,2,15,8,2,4,10,3,1,2,16,4,3,14,4,15,2,14,2,13,15,7,4,2,3,3,14,16,2,4,7,7,2,14,13,4,13,16,9,15,10,3,15,8,7,3,13,4,3,3,10,1,8,14,
9,16,14,13,9,8,9,4,2,9,4,15,7,4,9,7,16,15,3,7,7,3,8,4,8,10,7,2,10,1,2,14,2,10,16,2,10,16,10,8,9,8,1,8,15,2,14,1,8,4,3,10,14,4,3,10,14,10,13,15,3,7,9,13,13,14,14,14,10,16,9,1,3,14,10,7,13,7,15,3,13,4,9,13,2,4,13,9,13,3,16,9,10,8,1,2,10,13,4,10,16,15,10,4,9,1,10,1,13,3,13,10,10,3,9,9,9,8,8,10,
10,8,3,2,9,10,2,3,4,15,13,13,2,8,9,2,7,9,3,4,1,13,14,10,15,3,1,14,9,15,14,10,15,8,3,3,1,1,15,1,13,16,8,1,1,3,14,13,3,3,2,9,9,14,9,1,3,9,7,10,4,2,1,2,10,7,15,4,16,10,3,1,9,3,14,2,2,16,2,1,4,13,1,1,9,15,7,7,7,8,15,10,9,13,16,2,8,3,4,10,10,16,4,2,4,10,4,7,10,14,15,8,8,1,4,4,3,16,15,1,
7,2,2,1,2,7,2,2,9,16,14,16,13,14,9,16,7,16,14,13,1,4,2,8,9,13,8,2,2,13,4,1,1,14,10,9,7,15,13,9,3,4,1,7,14,13,10,16,2,16,1,16,2,3,13,7,8,7,7,7,7,3,13,8,2,14,16,13,8,9,10,2,1,14,9,16,7,8,1,2,14,10,10,1,8,14,15,15,14,14,14,4,16,2,14,16,16,7,10,3,10,13,3,1,8,8,14,16,16,16,15,7,1,3,7,15,9,2,15,16,
10,9,3,15,16,2,14,14,2,10,10,8,14,14,16,10,3,9,3,15,13,8,16,15,14,16,1,8,16,13,1,10,14,9,10,7,1,13,13,8,15,14,14,8,14,3,8,15,16,15,9,13,3,13,1,2,8,3,7,8,8,16,14,3,4,1,1,15,14,1,10,10,4,4,8,2,16,1,13,1,13,4,1,14,9,16,16,1,13,3,15,10,4,15,13,8,2,13,4,7,3,15,8,1,13,10,14,16,4,2,13,16,10,15,10,2,3,1,16,1,
13,8,3,9,13,4,14,15,9,7,16,1,15,1,14,4,3,14,7,8,7,1,15,16,4,14,15,4,14,9,4,14,8,7,3,10,8,2,1,7,16,13,10,7,1,15,7,10,8,13,15,15,14,16,14,2,9,16,16,4,14,8,1,3,16,2,2,15,8,8,10,15,1,10,13,9,14,2,1,1,2,9,2,10,10,7,13,15,1,14,13,16,2,9,4,4,16,14,8,14,4,14,8,9,4,4,9,7,3,7,3,15,4,4,14,3,14,2,4,8,
7,14,9,9,16,4,15,10,1,4,3,10,15,8,1,9,1,14,10,2,14,9,10,10,10,15,10,16,2,7,7,8,16,7,16,2,16,10,1,1,9,8,10,15,3,14,10,9,8,3,10,8,8,2,8,3,16,3,2,7,14,9,10,13,14,3,4,13,15,13,10,16,10,7,13,10,13,15,14,2,7,14,2,9,4,1,10,10,3,4,3,14,16,15,14,14,16,8,16,3,4,10,1,15,13,14,2,1,14,7,10,4,13,2,8,9,10,4,7,3,
16,1,15,7,3,14,4,13,16,15,9,16,13,2,2,7,8,16,10,3,3,9,9,4,14,1,10,14,3,7,3,3,9,8,3,2,16,10,13,9,8,1,4,15,2,15,1,4,14,3,7,2,3,3,13,1,3,14,1,16,2,14,15,15,2,13,3,13,13,7,10,4,13,10,4,14,9,16,15,13,16,9,3,14,16,2,1,14,10,4,3,7,9,13,3,15,1,8,1,16,8,1,16,14,3,13,4,4,2,7,3,14,13,15,2,8,3,7,2,3,
13,3,4,2,15,1,16,3,3,10,9,10,3,3,4,14,14,14,14,4,3,13,14,8,13,7,9,2,4,14,13,7,14,8,3,2,8,2,4,8,10,4,14,7,13,7,2,14,14,10,2,2,1,14,2,13,2,9,2,4,4,2,13,10,9,1,10,3,13,9,14,13,10,15,4,8,4,14,15,1,1,3,1,14,16,4,9,3,7,10,2,3,9,9,1,2,9,4,15,1,3,4,4,2,16,16,16,4,10,3,16,1,7,9,13,8,1,4,14,7,
9,2,10,14,10,8,13,1,2,2,14,9,13,15,16,14,15,9,9,9,2,1,3,13,3,9,14,2,14,13,10,10,8,16,3,15,14,1,1,16,2,10,8,1,13,8,16,13,14,4,16,9,7,4,15,2,1,14,8,2,4,8,1,3,10,9,16,2,7,16,3,15,10,15,13,7,7,13,4,7,10,2,1,10,4,9,3,8,9,15,8,13,7,3,2,9,9,10,2,14,4,1,9,16,3,15,3,13,8,16,8,2,4,2,4,7,1,13,7,10,
4,7,16,3,4,4,13,3,2,13,7,3,1,14,2,15,2,15,8,9,3,4,15,9,15,9,7,16,8,7,7,15,13,9,16,15,4,4,16,9,4,9,15,1,7,7,15,3,3,15,1,15,3,16,7,15,16,14,14,1,4,7,1,2,9,3,8,10,13,13,9,14,10,7,8,8,2,2,14,4,9,4,4,13,1,3,10,15,14,8,7,13,9,16,13,9,13,7,4,9,16,16,1,1,15,15,1,1,1,14,16,10,4,1,7,10,2,10,9,7,
7,8,4,3,16,8,3,9,9,3,14,10,7,14,10,4,3,7,3,3,15,7,10,1,4,9,2,10,2,3,2,15,10,8,13,3,2,8,4,14,16,3,13,16,13,1,3,3,8,2,1,4,10,4,3,4,15,1,3,3,2,15,15,10,2,2,7,9,16,8,15,14,4,2,15,2,9,10,10,9,10,14,8,1,4,14,7,4,7,9,9,4,7,7,3,8,7,3,2,15,4,13,15,3,8,13,1,8,15,7,3,4,8,13,16,8,10,13,8,8,
8,14,10,13,3,15,2,15,15,1,4,14,16,3,9,1,14,15,2,4,3,14,16,7,9,14,4,9,13,4,10,15,9,13,8,3,3,15,10,14,4,1,4,7,9,15,10,15,13,4,13,16,3,4,8,3,2,16,16,13,10,15,7,14,10,10,14,3,7,9,9,16,3,4,2,10,15,13,1,16,2,10,7,10,1,14,15,7,15,10,13,15,2,1,13,15,1,8,15,14,10,3,3,7,3,9,7,15,16,8,10,13,9,7,3,16,10,8,13,9,
13,9,8,9,8,3,3,3,4,1,7,9,10,3,15,10,4,16,10,14,16,16,9,16,16,2,13,2,14,10,15,2,14,3,13,8,15,1,10,8,2,14,3,14,14,3,14,13,2,3,1,7,3,7,7,16,9,14,3,13,7,15,4,15,7,9,9,14,10,10,9,8,1,14,3,9,15,1,3,15,8,3,13,1,10,3,15,2,4,13,1,4,4,3,10,4,3,8,2,2,13,1,8,16,3,3,2,14,13,3,8,2,1,1,7,15,15,13,8,10,
2,7,15,15,16,14,8,8,7,16,7,13,2,2,4,1,2,2,2,4,3,7,2,7,15,8,1,14,14,8,1,9,8,3,9,9,2,1,1,1,4,4,14,16,9,3,9,2,9,2,2,10,10,16,3,7,1,1,4,2,3,14,9,1,10,10,16,10,10,7,4,4,2,2,1,1,16,13,9,1,14,15,7,10,15,1,13,8,14,4,1,4,8,9,7,2,7,13,4,15,9,14,4,15,13,9,3,3,1,1,8,1,14,8,4,7,4,14,2,9,
8,13,2,2,15,3,2,2,3,1,15,13,2,14,1,4,4,14,16,15,2,7,13,9,16,3,1,8,3,7,7,15,15,15,13,2,7,2,3,8,2,1,2,2,7,4,14,13,1,3,13,14,10,8,10,10,14,10,14,4,9,3,3,13,8,13,15,8,16,8,15,8,7,3,10,14,1,10,14,13,16,9,8,13,9,14,16,13,4,7,3,13,4,9,2,3,4,13,13,2,3,9,15,15,14,2,3,7,3,14,9,14,13,16,9,2,8,8,3,8,
14,10,13,2,14,8,1,7,15,16,4,13,13,16,7,16,7,16,14,13,8,7,4,4,16,14,15,2,4,4,3,3,3,16,2,7,16,8,10,14,13,13,9,10,7,13,7,13,8,9,13,1,9,4,9,16,7,13,13,9,3,7,4,13,9,13,15,7,9,9,14,3,15,1,4,13,8,15,4,3,13,1,4,14,3,16,16,9,7,9,7,2,14,3,2,1,9,4,7,15,8,8,14,13,15,4,10,15,16,2,13,2,4,4,10,4,16,7,14,1,
7,15,10,3,7,10,13,16,15,7,8,13,7,14,10,14,1,10,14,16,13,1,7,1,7,3,4,2,13,16,8,9,14,1,3,9,13,7,8,1,2,8,7,15,3,13,7,16,1,8,14,2,2,10,4,13,15,13,2,15,8,13,14,3,4,9,14,4,2,13,15,8,3,9,10,9,7,7,7,7,9,7,3,9,3,4,4,13,15,10,2,4,9,4,8,2,15,14,14,14,1,14,9,14,1,14,14,10,15,10,4,8,16,15,1,9,2,13,3,14,
3,10,14,9,16,14,2,1,3,10,4,3,14,2,14,14,9,13,7,8,7,7,10,16,9,3,3,9,8,14,4,10,15,15,2,1,1,1,16,3,1,16,10,7,8,8,15,3,8,1,15,3,4,2,10,7,4,4,15,4,9,1,3,13,14,7,13,7,15,4,1,14,13,14,2,4,16,8,1,16,9,2,7,2,4,15,15,10,15,8,4,2,14,4,2,13,15,1,16,13,2,2,2,1,3,14,10,7,10,3,4,14,1,13,3,14,13,16,3,3,
15,15,2,1,13,14,4,14,16,4,4,8,14,16,13,8,13,7,9,10,13,16,8,9,9,7,7,4,16,4,13,15,4,15,13,2,10,3,3,16,16,1,1,14,16,2,13,15,16,4,13,8,2,15,7,10,10,14,14,10,3,4,3,9,14,2,1,3,7,2,7,9,13,15,9,10,13,14,1,2,10,8,9,15,2,13,7,14,9,10,15,16,15,4,15,15,2,4,8,7,1,13,9,8,15,3,7,2,8,8,14,1,3,4,3,13,14,9,14,7,
8,9,3,7,14,2,13,8,4,16,13,9,4,13,4,1,8,9,3,15,7,4,14,8,7,8,13,9,16,8,9,2,15,2,4,7,2,15,3,13,16,7,2,15,3,1,1,1,15,16,7,9,9,3,15,15,10,8,9,8,14,3,13,9,15,9,14,14,8,7,4,14,1,14,14,15,4,4,7,9,13,15,9,1,9,9,4,15,2,15,7,3,4,8,10,13,4,1,8,2,9,14,4,16,4,14,10,2,9,8,2,10,2,1,9,1,7,13,2,1,
10,8,7,2,13,2,10,15,16,15,2,3,8,15,16,9,14,16,7,3,9,8,8,16,16,16,2,15,2,7,8,10,1,2,4,2,9,9,9,14,10,15,7,16,9,2,2,8,8,9,3,13,16,16,9,2,15,1,14,14,16,14,15,1,8,1,1,2,13,4,1,3,8,16,13,7,16,14,3,2,1,2,2,10,2,14,2,2,15,4,2,14,13,16,10,4,16,1,3,1,8,13,2,2,8,4,10,16,8,14,8,4,2,14,7,10,2,14,2,15,
13,16,14,4,16,2,1,3,16,2,1,7,8,1,4,3,10,3,8,16,15,2,8,13,15,15,16,10,14,4,10,14,4,15,13,10,15,2,3,9,7,15,10,2,3,9,4,2,7,10,16,14,3,16,2,13,9,4,13,13,13,2,3,10,15,16,2,4,7,3,1,7,16,9,10,14,3,3,10,8,3,15,14,9,14,9,7,7,16,14,16,1,1,4,1,9,3,1,10,1,10,13,8,2,16,4,7,10,3,16,10,2,9,7,10,13,4,16,3,7,
15,7,9,14,1,15,9,14,14,15,16,1,10,7,16,15,8,10,4,14,15,4,10,15,15,2,8,2,10,8,15,10,9,1,10,14,15,8,14,1,3,4,10,3,2,8,15,14,14,16,4,8,2,8,2,16,14,8,16,13,7,16,7,14,1,4,4,10,16,8,14,16,7,1,13,1,8,3,7,16,2,7,1,16,9,2,4,7,13,1,13,4,8,10,13,9,16,1,16,14,7,9,4,1,9,15,15,7,15,2,10,10,13,14,2,4,13,10,1,13,
14,13,3,15,8,9,3,7,1,14,15,8,10,2,3,4,3,13,7,4,3,2,14,7,2,9,7,13,1,9,10,10,7,10,10,13,13,7,3,1,1,16,10,13,16,10,13,7,7,1,1,3,8,9,15,15,16,16,7,15,9,15,1,15,3,8,1,15,7,1,8,14,9,10,10,10,15,16,2,7,4,2,9,16,7,10,13,4,8,9,16,9,10,15,16,2,3,8,4,10,1,1,13,2,15,14,4,4,16,15,15,13,13,7,3,15,8,16,13,15,
4,8,14,3,3,3,3,3,8,1,3,13,15,9,4,10,15,10,10,7,7,13,4,3,16,15,14,7,9,2,9,3,13,8,1,1,4,1,3,14,4,2,14,9,13,7,15,15,1,1,7,1,1,14,13,3,2,16,1,7,14,9,4,15,2,14,14,1,3,14,13,8,9,7,7,4,9,7,9,4,2,7,3,8,3,2,16,13,3,4,10,2,13,1,14,15,1,10,13,2,16,1,7,1,3,15,9,7,16,14,3,16,16,15,16,4,10,16,13,15,
15,14,14,4,15,8,15,2,2,16,4,1,4,7,4,16,8,10,15,15,16,14,15,4,1,14,8,13,2,4,13,16,1,10,1,13,1,7,4,16,13,1,1,1,10,16,3,16,15,4,3,10,2,8,8,9,2,3,15,3,16,9,9,8,14,14,15,15,9,3,1,10,10,9,13,13,4,13,13,1,1,13,9,16,13,9,13,10,15,8,4,10,2,15,3,14,3,8,7,8,1,3,4,9,1,4,7,2,13,15,7,10,4,2,2,10,9,15,14,4,
1,15,2,8,16,3,7,2,2,1,10,4,13,1,15,4,16,2,15,7,2,9,10,2,16,4,14,13,14,7,7,13,9,13,16,1,16,8,2,16,8,7,10,15,1,1,4,14,8,1,1,3,10,15,7,4,7,7,16,14,14,2,3,4,4,1,2,14,4,4,10,1,8,14,15,8,4,4,10,14,14,9,8,10,16,16,16,9,14,3,14,1,14,10,13,8,4,8,15,7,3,15,16,13,9,4,8,15,10,8,7,13,10,3,8,13,15,9,16,3,
13,9,15,13,7,14,13,4,7,4,8,10,9,10,16,7,3,16,3,2,3,8,13,9,14,16,13,2,4,9,10,9,10,14,13,9,4,3,3,4,16,16,9,15,7,16,14,8,16,15,13,13,15,16,4,4,14,7,16,7,15,13,16,4,3,2,15,1,1,3,10,16,9,10,2,9,16,3,7,15,13,4,15,10,9,2,16,13,16,10,8,3,3,7,8,14,8,15,3,14,2,7,2,16,15,2,7,16,1,15,4,7,13,8,13,16,15,15,1,7,
9,10,1,2,7,15,1,4,4,16,3,14,7,13,14,15,15,10,16,2,16,2,14,16,1,2,10,13,13,15,7,4,1,16,3,13,14,13,4,15,10,2,7,7,4,4,2,8,1,16,2,4,7,3,4,16,8,9,16,10,2,14,1,16,10,9,1,4,16,8,3,8,1,16,4,14,13,4,14,9,15,9,15,2,10,8,14,15,4,14,9,9,4,15,16,1,15,1,3,4,9,7,7,9,3,10,10,9,14,16,14,13,13,9,2,7,14,3,13,13,
14,15,14,4,8,4,15,1,15,15,13,3,2,4,1,14,1,14,15,8,7,10,10,9,2,4,3,3,7,14,8,2,4,8,3,7,9,8,15,13,1,13,15,14,7,9,10,2,13,16,16,1,2,7,15,8,3,13,16,9,8,13,14,7,9,13,15,1,7,13,3,16,3,2,9,16,15,9,1,14,16,16,9,16,14,7,10,9,4,16,1,9,13,8,10,13,10,13,7,13,15,14,4,8,8,13,14,15,4,1,1,14,16,2,10,15,10,4,1,15,
16,9,14,2,15,1,1,16,15,10,16,1,2,1,1,2,4,10,13,14,10,7,8,3,1,14,2,8,3,9,9,9,3,2,13,1,13,2,2,2,9,10,4,7,7,13,14,16,3,4,14,3,8,1,16,8,14,14,3,9,13,7,9,3,8,14,2,14,3,10,9,4,8,7,9,14,8,1,14,13,13,13,13,15,14,7,15,13,2,14,10,8,16,2,7,1,4,16,15,2,7,4,15,9,10,13,16,13,1,9,16,14,14,2,8,2,2,16,16,7,
2,3,9,3,1,2,13,9,1,8,3,15,4,10,4,8,2,2,9,14,13,13,16,1,1,4,1,13,9,4,4,1,7,7,1,8,4,4,13,1,4,16,7,7,1,7,16,14,7,15,13,14,4,14,1,1,16,14,15,16,14,3,7,3,10,13,3,4,13,13,4,15,3,14,2,13,15,13,4,15,4,10,9,15,3,3,2,15,7,3,13,1,13,3,13,2,15,16,7,7,3,3,15,13,9,9,1,1,10,13,3,2,8,8,4,1,14,8,3,3,
14,10,7,15,9,1,15,16,15,4,9,13,14,16,8,7,14,10,13,9,7,3,10,2,7,2,8,16,1,14,10,13,13,1,10,15,8,4,9,8,2,13,7,9,3,4,2,8,8,13,2,3,15,16,2,2,7,8,4,16,16,1,7,8,7,9,4,14,10,1,4,14,8,9,1,4,10,10,4,4,1,3,15,14,2,14,15,9,10,16,14,1,8,16,1,9,15,7,3,4,4,2,4,14,16,1,10,15,2,4,10,7,16,7,4,9,16,2,2,2,
1,14,3,1,7,4,15,2,15,15,15,1,9,4,10,13,3,8,1,13,8,7,14,9,15,7,16,2,9,1,1,13,13,15,3,14,14,8,10,2,3,14,7,7,4,4,3,13,15,4,8,13,2,14,7,2,15,15,4,4,10,8,1,8,15,1,8,3,15,9,9,4,7,10,3,9,13,10,2,16,16,13,13,10,2,9,9,2,10,15,10,7,14,13,13,15,16,9,16,14,4,4,3,15,2,1,15,3,8,3,8,1,10,13,2,14,16,4,9,1,
1,2,2,10,13,9,1,10,4,8,3,3,14,4,8,9,7,3,13,7,8,15,10,16,13,14,7,13,16,2,8,4,1,3,7,1,1,16,10,10,3,1,14,7,3,8,15,10,15,8,3,2,16,1,15,2,8,1,8,9,4,9,10,13,8,7,10,7,8,3,9,16,7,7,13,13,3,1,7,13,10,10,8,13,7,3,16,7,14,9,1,8,15,2,2,14,4,2,2,7,8,7,13,16,1,9,10,4,15,9,15,16,2,13,13,10,4,10,15,15,
3,2,7,15,3,3,3,14,13,13,3,13,3,14,4,15,3,14,15,1,3,16,10,13,8,8,7,16,9,9,14,15,14,10,14,10,10,3,1,1,1,8,7,7,2,10,1,2,15,13,3,9,9,10,1,1,2,10,1,4,1,13,2,3,9,2,1,2,14,9,9,3,15,8,14,1,9,9,2,14,8,15,1,10,10,14,9,10,15,13,14,7,8,3,14,14,13,8,14,9,1,4,3,9,13,4,4,13,10,10,16,13,15,16,2,13,2,14,13,4,
3,1,9,2,9,7,7,3,13,16,8,3,1,3,10,2,14,8,7,7,14,9,8,14,9,3,8,13,1,14,10,2,1,10,10,13,1,14,14,7,16,7,10,15,2,8,8,8,13,14,9,15,14,8,16,4,3,9,13,1,4,2,13,13,14,2,8,16,16,16,3,4,4,3,8,13,3,9,13,4,8,13,16,10,4,3,2,1,3,10,13,1,10,9,13,3,3,13,14,7,4,13,9,13,3,3,1,15,1,14,14,3,4,1,4,4,3,4,7,1,
14,16,8,4,13,9,13,8,15,10,14,4,15,7,13,1,8,10,13,13,15,14,13,10,4,8,16,14,15,3,16,14,7,15,3,3,16,10,7,14,1,9,7,14,1,10,9,7,4,4,4,1,7,4,4,3,7,1,9,3,1,4,1,3,16,8,7,1,15,3,3,4,2,1,9,10,10,15,4,7,7,16,2,16,7,15,15,2,1,2,9,9,3,14,15,4,9,10,7,4,4,10,16,16,2,14,10,16,1,2,15,13,16,8,8,10,8,10,2,16,
2,15,9,16,8,13,13,8,2,16,9,13,13,13,9,4,4,8,16,14,1,16,16,15,15,13,2,13,13,14,4,8,3,9,14,14,15,14,14,13,1,1,8,3,16,9,1,16,1,13,4,3,9,7,4,8,14,1,14,4,4,9,13,9,14,9,13,13,1,15,10,14,1,14,3,1,3,2,10,2,16,3,3,15,1,15,3,3,4,14,16,7,2,10,10,1,10,3,10,9,13,13,4,9,13,7,7,1,13,14,16,3,9,3,16,10,14,13,3,16,
15,3,1,10,1,7,9,9,2,9,2,15,9,9,2,1,15,9,2,10,10,2,16,16,4,14,4,15,2,15,7,10,1,1,8,9,1,15,8,1,13,16,8,2,1,14,16,4,7,13,2,3,16,9,1,3,16,8,8,3,2,14,3,2,3,16,10,3,2,13,10,9,16,8,9,15,14,13,13,8,8,1,2,9,1,13,2,8,1,10,1,14,1,16,16,9,2,7,10,7,9,13,4,16,16,16,9,16,16,1,4,16,10,15,1,1,10,1,14,3,
7,10,7,8,16,10,1,7,14,15,8,16,3,13,7,1,16,14,13,3,4,9,13,10,4,3,14,7,15,7,3,1,14,1,1,13,2,8,1,15,9,3,4,2,15,9,16,4,10,9,9,8,4,8,3,1,7,4,4,16,3,3,4,1,4,9,9,7,16,15,10,8,7,15,13,13,2,1,16,4,2,13,15,16,3,9,1,14,9,2,3,3,4,1,16,10,13,3,15,13,13,13,4,13,8,1,14,7,3,16,10,15,16,14,8,7,8,15,10,9,
16,7,8,13,15,2,15,1,3,4,8,4,10,8,2,14,10,14,7,13,10,3,8,1,13,14,13,9,15,8,15,2,13,8,7,13,14,14,1,14,3,13,15,8,16,8,14,2,14,4,15,3,8,8,7,13,3,7,13,16,7,10,2,1,8,1,16,8,8,13,3,8,9,9,8,16,2,10,16,4,14,13,4,16,9,16,9,7,3,14,13,13,3,8,10,14,14,15,10,1,14,15,9,2,3,8,16,8,1,15,8,14,4,8,16,16,13,4,13,10,
14,9,13,3,2,7,14,7,4,1,10,2,13,7,9,14,4,3,8,4,16,8,15,14,10,3,13,4,7,2,13,1,3,14,4,7,14,8,8,16,14,15,1,13,2,13,13,9,7,4,4,13,7,1,3,4,4,8,4,1,3,8,2,9,1,1,4,13,15,8,14,4,15,10,15,8,9,7,3,1,4,9,10,7,16,8,14,2,14,4,8,9,7,9,2,2,7,9,8,9,2,3,15,4,9,14,10,1,4,1,8,15,9,14,4,7,8,1,13,10,
1,7,9,8,15,10,7,16,2,9,3,8,1,7,1,15,4,1,2,8,3,7,2,10,9,15,9,15,3,8,16,9,2,10,15,4,7,15,10,9,13,8,2,1,2,8,7,4,9,1,15,7,2,2,9,4,2,2,3,10,14,16,15,14,2,10,2,3,15,3,14,14,2,14,3,1,2,2,9,1,7,2,14,15,2,13,10,2,8,15,16,1,15,2,7,16,16,1,3,16,14,15,4,8,15,1,16,9,2,14,15,14,1,3,2,13,10,8,7,7,
10,2,1,7,8,3,16,9,1,8,16,13,15,9,16,4,3,15,2,15,7,13,7,15,15,15,7,16,7,9,4,2,2,10,13,7,13,15,7,9,15,10,4,13,2,16,2,3,2,7,8,9,7,7,4,1,4,7,8,2,1,10,14,15,13,9,14,16,16,14,1,13,3,8,15,15,1,1,2,9,15,9,7,10,16,3,9,16,14,13,3,15,13,7,7,16,3,9,2,7,13,13,14,13,8,2,3,15,1,2,13,10,10,9,7,9,4,15,9,7,
9,7,16,2,4,4,7,9,10,3,2,7,13,7,10,4,16,2,14,3,16,16,2,3,4,15,3,13,16,3,10,13,2,14,1,14,3,1,7,16,14,10,3,14,2,16,2,10,8,2,4,4,1,13,2,8,7,14,16,4,14,1,4,13,10,1,16,16,2,15,10,14,3,13,10,9,10,14,9,3,1,7,13,10,3,1,2,2,4,7,13,15,13,1,10,4,15,4,14,2,9,14,15,15,3,2,3,8,7,14,10,2,8,7,1,2,15,4,16,16,
10,2,15,10,1,9,16,9,3,2,8,8,14,15,10,1,2,7,14,1,13,10,1,8,9,13,15,14,7,16,3,7,4,10,1,2,8,9,2,15,1,14,4,7,15,2,7,14,1,8,9,15,7,10,7,1,14,15,16,15,9,3,14,3,15,10,1,14,9,2,7,4,3,2,2,4,10,2,13,16,3,3,2,8,14,14,16,14,7,16,10,10,13,14,13,16,2,9,1,8,13,7,13,13,9,15,1,2,13,16,10,16,8,7,7,14,1,10,4,15,
7,7,10,7,8,1,10,13,16,10,14,9,2,7,2,7,16,7,8,3,9,4,3,3,3,3,8,13,4,15,4,9,15,15,2,9,13,15,2,9,9,4,7,14,9,4,3,1,7,16,8,7,2,13,7,3,13,8,1,4,9,10,8,9,7,14,2,14,10,13,4,15,8,14,2,8,13,13,16,16,4,1,4,2,15,9,1,3,4,14,4,13,1,4,14,15,1,14,16,14,15,14,8,9,3,1,3,4,4,15,1,9,15,14,10,14,15,1,1,8,
2,9,9,7,13,10,8,10,16,1,3,10,10,4,3,1,14,16,16,13,16,15,7,16,13,10,10,15,3,13,1,1,14,10,13,15,15,15,13,14,3,3,14,16,10,9,16,3,1,7,13,14,13,3,1,15,3,4,2,9,10,15,7,7,3,9,2,14,9,3,16,8,13,1,15,7,7,10,8,7,16,4,9,16,8,3,13,7,14,3,3,10,13,10,13,4,9,14,13,10,8,3,3,13,15,2,15,14,14,2,1,10,3,15,10,13,3,2,14,14,
13,13,4,16,2,9,1,15,7,15,15,1,9,7,4,14,14,14,15,4,10,10,3,16,8,2,9,9,16,9,3,14,8,13,16,10,14,10,1,13,3,16,4,1,4,2,1,2,16,10,2,15,2,8,2,7,3,4,16,10,2,9,10,4,8,13,9,3,7,1,16,16,15,10,14,16,10,9,15,4,7,3,4,2,1,13,15,7,7,4,9,7,1,3,8,2,1,16,2,14,7,3,8,15,10,1,13,16,8,14,15,10,7,1,16,3,7,2,3,14,
9,2,14,10,1,7,14,1,2,14,9,8,14,10,9,14,13,1,8,2,1,1,8,14,15,15,13,4,1,8,16,9,15,7,1,1,1,10,3,4,2,7,4,9,8,4,8,15,14,10,15,1,14,9,2,10,2,10,13,13,14,10,1,9,16,1,14,10,14,13,9,16,9,14,7,4,8,13,7,7,10,3,9,16,4,10,15,13,14,14,1,3,7,7,8,13,8,15,1,9,14,15,7,10,16,3,9,8,15,3,13,2,1,4,9,4,9,16,8,4,
15,15,1,13,8,3,2,4,8,1,10,3,7,14,13,10,8,3,3,2,1,8,13,1,14,3,2,1,4,8,1,16,16,1,3,9,16,10,15,4,3,8,13,8,16,4,16,15,9,10,14,2,9,7,4,9,14,15,9,2,7,7,1,3,3,2,9,1,4,10,1,14,7,16,1,4,1,7,2,15,13,16,10,14,14,2,7,4,8,16,9,2,4,3,4,9,14,15,13,10,13,7,15,1,7,2,3,3,2,3,3,16,16,7,8,13,16,4,10,16,
10,8,7,4,7,1,2,15,1,3,7,4,14,1,9,9,16,1,15,2,1,3,3,10,7,16,4,16,2,4,4,15,3,9,4,3,15,1,8,1,10,16,9,3,2,10,15,3,10,13,8,13,10,7,10,10,15,1,10,14,10,10,7,4,15,8,1,8,10,1,9,10,13,16,14,9,1,8,2,13,10,14,1,15,14,16,4,1,10,16,8,3,13,8,14,15,13,9,3,15,4,16,2,3,13,15,16,13,16,8,9,8,15,2,7,2,15,3,13,10,
7,7,4,8,4,1,13,9,13,2,14,10,13,14,10,10,1,8,15,2,7,13,16,16,2,15,2,4,13,16,1,9,9,7,16,2,14,15,13,4,9,13,2,3,1,4,9,8,10,8,2,7,10,2,10,2,10,10,4,13,16,2,1,2,4,16,2,14,7,13,15,9,14,15,14,13,14,1,16,2,3,8,10,13,1,16,8,10,16,15,1,3,9,7,8,16,10,16,2,4,8,8,15,8,4,4,3,16,9,3,4,13,9,3,1,2,2,3,16,15,
9,7,9,13,4,2,1,9,10,9,2,1,3,13,9,8,10,16,10,10,2,16,14,14,15,8,7,8,8,13,1,8,3,13,16,7,7,8,15,16,10,14,16,4,3,8,16,15,8,15,7,8,8,1,14,10,4,9,1,16,15,4,13,15,7,4,3,1,8,10,2,16,10,16,14,10,10,9,15,8,10,7,16,7,2,16,15,9,4,3,10,2,2,10,8,3,7,15,14,2,4,3,2,7,3,10,13,10,10,3,2,13,14,10,15,2,10,14,9,8,
8,13,1,4,3,8,15,3,13,14,13,13,2,9,3,10,10,8,16,9,1,13,9,13,1,16,16,4,16,10,9,10,4,1,3,7,16,4,7,1,2,7,16,15,1,14,8,8,4,2,3,16,8,4,14,9,8,13,14,15,7,13,9,9,2,3,3,1,2,13,9,2,2,10,13,13,10,10,1,8,7,14,2,13,3,16,14,7,4,8,7,10,4,7,15,10,15,15,16,3,3,1,10,8,8,2,2,14,13,10,15,14,1,2,4,8,7,14,10,15,
15,13,2,14,14,10,3,4,16,14,8,13,3,13,16,16,13,8,4,10,13,10,13,8,15,9,9,14,9,14,3,14,3,3,2,9,14,15,3,7,16,14,10,10,13,8,2,15,14,14,14,16,2,10,7,4,10,3,2,8,10,1,14,9,3,2,4,3,15,9,10,2,7,16,9,15,15,13,15,10,4,3,1,15,4,8,2,3,9,15,10,8,4,9,10,10,16,16,14,16,2,7,10,1,2,9,1,8,1,7,8,4,16,4,3,1,3,16,15,10,
14,14,8,8,9,13,16,13,1,14,15,4,14,1,9,3,16,3,13,7,8,14,3,4,10,16,15,8,13,3,13,14,7,13,8,2,9,3,15,10,4,14,8,3,16,15,8,7,16,16,16,14,16,9,13,2,16,1,7,3,2,14,14,10,4,7,14,15,3,1,10,10,13,2,2,13,9,4,2,15,3,7,7,3,8,1,16,9,4,2,7,13,2,4,14,10,7,15,7,2,9,10,13,2,7,13,2,14,9,10,3,1,1,3,7,8,7,2,15,7,
3,4,2,3,14,7,3,2,3,14,2,16,2,2,9,4,1,13,15,13,4,1,14,16,7,9,7,2,1,10,16,10,8,4,2,7,16,1,14,15,15,15,2,14,4,10,9,9,15,14,10,7,1,15,2,16,4,8,3,4,7,1,16,13,2,2,16,9,10,15,10,10,16,2,15,2,4,2,10,14,13,1,9,1,15,14,1,2,13,13,3,2,7,8,2,1,2,1,9,14,13,1,1,1,8,10,7,7,10,15,14,14,10,9,10,1,9,9,4,14,
3,3,1,13,9,2,10,7,10,1,9,16,15,3,13,10,15,15,9,4,10,2,13,1,10,2,14,14,1,9,2,16,3,4,4,13,13,7,2,15,8,1,15,8,8,3,7,8,1,8,2,2,2,9,2,4,16,13,7,15,8,4,16,13,16,15,16,9,16,14,16,14,1,7,7,7,1,7,2,15,8,3,14,13,15,9,1,8,2,8,1,3,10,7,15,10,15,9,14,1,1,14,4,2,1,7,10,9,7,16,9,4,3,15,3,7,3,3,15,9
</data>
 </layer>
 <layer id="2" name="walls" width="120" height="68">
  <data encoding="csv">
75,124,124,124,124,124,124,124,124,124,124,124,124,124,124,124,124,124,124,124,124,124,124,124,124,124,124,124,124,124,124,124,124,124,124,124,124,124,124,124,124,124,124,124,124,124,124,124,124,124,124,124,124,124,124,124,124,124,124,124,124,124,124,124,124,124,124,124,124,124,124,124,124,124,124,124,124,124,124,124,124,124,124,124,124,124,124,124,124,124,124,124,124,124,124,124,124,124,124,124,124,124,124,124,124,124,124,124,124,124,124,124,124,124,124,124,124,124,124,77,
50,0,0,0,0,0,0,0,0,0,0,0,0,0,0,0,0,0,0,0,0,0,0,0,0,0,0,0,0,0,0,0,0,0,0,0,0,0,0,0,0,0,0,0,0,0,0,0,0,0,0,0,0,0,0,0,0,0,0,0,0,0,0,0,0,0,0,0,0,0,0,0,0,0,0,0,0,0,0,0,0,0,0,0,0,0,0,0,0,0,0,0,0,0,0,0,0,0,0,0,0,0,0,0,0,0,0,0,0,0,0,0,0,0,0,0,0,0,0,50,
50,0,0,0,0,0,0,0,0,0,0,0,0,0,0,0,0,0,0,0,0,0,0,0,0,0,0,0,0,0,0,0,0,0,0,0,0,0,0,0,0,0,0,0,0,0,0,0,0,0,0,0,0,0,0,0,0,0,0,0,0,0,0,0,0,0,0,0,0,0,0,0,0,0,0,0,0,0,0,0,0,0,0,0,0,0,0,0,0,0,0,0,0,0,0,0,0,0,0,0,0,0,0,0,0,0,0,0,0,0,0,0,0,0,0,0,0,0,0,74,
50,0,0,0,0,0,0,0,0,0,0,0,0,0,0,0,0,0,0,0,0,0,0,0,0,0,0,0,0,0,0,0,0,0,0,0,0,0,0,0,0,0,0,0,0,0,0,0,0,0,0,0,0,0,0,0,0,0,0,0,0,0,0,0,0,0,0,0,0,0,0,0,0,0,0,0,0,0,0,0,0,0,0,0,0,0,0,0,0,0,0,0,0,0,0,0,0,0,0,0,0,0,0,0,0,0,0,0,0,0,0,0,0,0,0,0,0,0,0,74,
50,0,0,0,0,0,0,0,0,0,0,0,0,0,0,0,0,0,0,0,0,0,0,0,0,0,0,0,0,0,0,0,0,0,0,0,0,0,0,0,0,0,0,0,0,0,0,0,0,0,0,0,0,0,0,0,0,0,0,0,0,0,0,0,0,0,0,0,0,0,0,0,0,0,0,0,0,0,0,0,0,0,0,0,0,0,0,0,0,0,0,0,0,0,0,0,0,0,0,0,0,0,0,0,0,0,0,0,0,0,0,0,0,0,0,0,0,0,0,74,
50,0,0,0,0,0,0,0,0,0,0,0,0,0,0,0,0,0,0,0,0,0,0,0,0,0,0,0,0,0,0,0,0,0,0,0,0,0,0,0,0,0,0,0,0,0,0,0,0,0,0,0,0,0,0,0,0,0,0,0,0,0,0,0,0,0,0,0,0,0,0,0,0,0,0,0,0,0,0,0,0,0,0,0,0,0,0,0,0,0,0,0,0,0,0,0,0,0,0,0,0,0,0,0,0,0,0,0,0,0,0,0,0,0,0,0,0,0,0,74,
50,0,0,0,0,0,0,0,0,0,0,0,0,0,0,0,0,0,0,0,0,0,0,0,0,0,0,0,0,0,0,0,0,0,0,0,0,0,0,0,0,0,0,0,0,0,0,0,0,0,0,0,0,0,0,0,0,0,0,0,0,0,0,0,0,0,0,0,0,0,0,0,0,0,0,0,0,0,0,0,0,0,0,0,0,0,0,0,0,0,0,0,0,0,0,0,0,0,0,0,0,0,0,0,0,0,0,0,0,0,0,0,0,0,0,0,0,0,0,74,
50,0,0,0,0,0,0,0,0,0,0,0,0,0,0,0,0,0,0,0,0,0,0,0,0,0,0,0,0,0,0,0,0,0,0,0,0,0,0,0,0,0,0,0,0,0,0,0,0,0,0,0,0,0,0,0,0,0,0,0,0,0,0,0,0,0,0,0,0,0,0,0,0,0,0,0,0,0,0,0,0,0,0,0,0,0,0,0,0,0,0,0,0,0,0,0,0,0,0,0,0,0,0,0,0,0,0,0,0,0,0,0,0,0,0,0,0,0,0,74,
50,0,0,0,0,0,0,0,0,0,0,0,0,0,0,0,0,0,0,0,0,0,0,0,0,0,0,0,0,0,0,0,0,0,0,0,0,0,0,0,0,0,0,0,0,0,0,0,0,0,0,0,0,0,0,0,0,0,0,0,0,0,0,0,0,0,0,0,0,0,0,0,0,0,0,0,0,0,0,0,0,0,0,0,0,0,0,0,0,0,0,0,0,0,0,0,0,0,0,0,0,0,0,0,0,0,0,0,0,0,0,0,0,0,0,0,0,0,0,74,
50,0,0,0,0,0,0,0,0,0,0,0,0,0,0,0,0,0,0,0,0,0,0,0,0,0,0,0,0,0,0,0,0,0,0,0,0,0,0,0,0,0,0,0,0,0,0,0,0,0,0,0,0,0,0,0,0,0,0,0,0,0,0,0,0,0,0,0,0,0,0,0,0,0,0,0,0,0,0,0,0,0,0,0,0,0,0,0,0,0,0,0,0,0,0,0,0,0,0,0,0,0,0,0,0,0,0,0,0,0,0,0,0,0,0,0,0,0,0,74,
50,0,0,0,0,0,0,0,0,0,0,0,0,0,0,0,0,0,0,0,0,0,0,0,0,0,0,0,0,0,0,0,0,0,0,0,0,0,0,0,0,0,0,0,0,0,0,0,0,0,0,0,0,0,0,0,0,0,0,0,0,0,0,0,0,0,0,0,0,0,0,0,0,0,0,0,0,0,0,0,0,0,0,0,0,0,0,0,0,0,0,0,0,0,0,0,0,0,0,0,0,0,0,0,0,0,0,0,0,0,0,0,0,0,0,0,0,0,0,74,
50,0,0,0,0,0,0,0,0,0,0,0,0,0,0,0,0,0,0,0,0,0,0,0,0,0,0,0,0,0,0,0,0,0,0,0,0,0,0,0,0,0,0,0,0,0,0,0,0,0,0,0,0,0,0,0,0,0,0,0,0,0,0,0,0,0,0,0,0,0,0,0,0,0,0,0,0,0,0,0,0,0,0,0,0,0,0,0,0,0,0,0,0,0,0,0,0,0,0,0,0,0,0,0,0,0,0,0,0,0,0,0,0,0,0,0,0,0,0,74,
50,0,0,0,0,0,0,0,0,0,0,0,0,0,0,0,0,0,0,0,0,0,0,0,0,0,0,0,0,0,0,0,0,0,0,0,0,0,0,0,0,0,0,0,0,0,0,0,0,0,0,0,0,0,0,0,0,0,0,0,0,0,0,0,0,0,0,0,0,0,0,0,0,0,0,0,0,0,0,0,0,0,0,0,0,0,0,0,0,0,0,0,0,0,0,0,0,0,0,0,0,0,0,0,0,0,0,0,0,0,0,0,0,0,0,0,0,0,0,74,
50,0,0,0,0,0,0,0,0,0,0,0,0,0,0,0,0,0,0,0,0,0,0,0,0,0,0,0,0,0,0,0,0,0,0,0,0,0,0,0,0,0,0,0,0,0,0,0,0,0,0,0,0,0,0,0,0,0,0,0,0,0,0,0,0,0,0,0,0,0,0,0,0,0,0,0,0,0,0,0,0,0,0,0,0,0,0,0,0,0,0,0,0,0,0,0,0,0,0,0,0,0,0,0,0,0,0,0,0,0,0,0,0,0,0,0,0,0,0,74,
50,0,0,0,0,0,0,0,0,0,0,0,0,0,0,0,0,0,0,0,0,0,0,0,0,0,0,0,0,0,0,0,0,0,0,0,0,0,0,0,0,0,0,0,0,0,0,0,0,0,0,0,0,0,0,0,0,0,0,0,0,0,0,0,0,0,0,0,0,0,0,0,0,0,0,0,0,0,0,0,0,0,0,0,0,0,0,0,0,0,0,0,0,0,0,0,0,0,0,0,0,0,0,0,0,0,0,0,0,0,0,0,0,0,0,0,0,0,0,74,
50,0,0,0,0,0,0,0,0,0,0,0,0,0,0,0,0,0,0,0,0,0,0,0,0,0,0,0,0,0,0,0,0,0,0,0,0,0,0,0,0,0,0,0,0,0,0,0,0,0,0,0,0,0,0,0,0,0,0,0,0,0,0,0,0,0,0,0,0,0,0,0,0,0,0,0,0,0,0,0,0,0,0,0,0,0,0,0,0,0,0,0,0,0,0,0,0,0,0,0,0,0,0,0,0,0,0,0,0,0,0,0,0,0,0,0,0,0,0,74,
50,0,0,0,0,0,0,0,0,0,0,0,0,0,0,0,0,0,0,0,0,0,0,0,0,0,0,0,0,0,0,0,0,0,0,0,0,0,0,0,0,0,0,0,0,0,0,0,0,0,0,0,0,0,0,0,0,0,0,0,0,0,0,0,0,0,0,0,0,0,0,0,0,0,0,0,0,0,0,0,0,0,0,0,0,0,0,0,0,0,0,0,0,0,0,0,0,0,0,0,0,0,0,0,0,0,0,0,0,0,0,0,0,0,0,0,0,0,0,74,
50,0,0,0,0,0,0,0,0,0,0,0,0,0,0,0,0,0,0,0,0,0,0,0,0,0,0,0,0,0,0,0,0,0,0,0,0,0,0,0,0,0,0,0,0,0,0,0,0,0,0,0,0,0,0,0,0,0,0,0,0,0,0,0,0,0,0,0,0,0,0,0,0,0,0,0,0,0,0,0,0,0,0,0,0,0,0,0,0,0,0,0,0,0,0,0,0,0,0,0,0,0,0,0,0,0,0,0,0,0,0,0,0,0,0,0,0,0,0,74,
50,0,0,0,0,0,0,0,0,0,0,0,0,0,0,0,0,0,0,0,0,0,0,0,0,0,0,0,0,0,0,0,0,0,0,0,0,0,0,0,0,0,0,0,0,0,0,0,0,0,0,0,0,0,0,0,0,0,0,0,0,0,0,0,0,0,0,0,0,0,0,0,0,0,0,0,0,0,0,0,0,0,0,0,0,0,0,0,0,0,0,0,0,0,0,0,0,0,0,0,0,0,0,0,0,0,0,0,0,0,0,0,0,0,0,0,0,0,0,74,
50,0,0,0,0,0,0,0,0,0,0,0,0,0,0,0,0,0,0,0,0,0,0,0,0,0,0,0,0,0,0,0,0,0,0,0,0,0,0,0,0,0,0,0,0,0,0,0,0,0,0,0,0,0,0,0,0,0,0,0,0,0,0,0,0,0,0,0,0,0,0,0,0,0,0,0,0,0,0,0,0,0,0,0,0,0,0,0,0,0,0,0,0,0,0,0,0,0,0,0,0,0,0,0,0,0,0,0,0,0,0,0,0,0,0,0,0,0,0,74,
50,0,0,0,0,0,0,0,0,0,0,0,0,0,0,0,0,0,0,0,0,0,0,0,0,0,0,0,0,0,0,0,0,0,0,0,0,0,0,0,0,0,0,0,0,0,0,0,0,0,0,0,0,0,0,0,0,0,0,0,0,0,0,0,0,0,0,0,0,0,0,0,0,0,0,0,0,0,0,0,0,0,0,0,0,0,0,0,0,0,0,0,0,0,0,0,0,0,0,0,0,0,0,0,0,0,0,0,0,0,0,0,0,0,0,0,0,0,0,74,
50,0,0,0,0,0,0,0,0,0,0,0,0,0,0,0,0,0,0,0,0,0,0,0,0,0,0,0,0,0,0,0,0,0,0,0,0,0,0,0,0,0,0,0,0,0,0,0,0,0,0,0,0,0,0,0,0,0,0,0,0,0,0,0,0,0,0,0,0,0,0,0,0,0,0,0,0,0,0,0,0,0,0,0,0,0,0,0,0,0,0,0,0,0,0,0,0,0,0,0,0,0,0,0,0,0,0,0,0,0,0,0,0,0,0,0,0,0,0,74,
50,0,0,0,0,0,0,0,0,0,0,0,0,0,0,0,0,0,0,0,0,0,0,0,0,0,0,0,0,0,0,0,0,0,0,0,0,0,0,0,0,0,0,0,0,0,0,0,0,0,0,0,0,0,0,0,0,0,0,0,0,0,0,0,0,0,0,0,0,0,0,0,0,0,0,0,0,0,0,0,0,0,0,0,0,0,0,0,0,0,0,0,0,0,0,0,0,0,0,0,0,0,0,0,0,0,0,0,0,0,0,0,0,0,0,0,0,0,0,74,
50,0,0,0,0,0,0,0,0,0,0,0,0,0,0,0,0,0,0,0,0,0,0,0,0,0,0,0,0,0,0,0,0,0,0,0,0,0,0,0,0,0,0,0,0,0,0,0,0,0,0,0,0,0,0,0,0,0,0,0,0,0,0,0,0,0,0,0,0,0,0,0,0,0,0,0,0,0,0,0,0,0,0,0,0,0,0,0,0,0,0,0,0,0,0,0,0,0,0,0,0,0,0,0,0,0,0,0,0,0,0,0,0,0,0,0,0,0,0,74,
50,0,0,0,0,0,0,0,0,0,0,0,0,0,0,0,0,0,0,0,0,0,0,0,0,0,0,0,0,0,0,0,0,0,0,0,0,0,0,0,0,0,0,0,0,0,0,0,0,0,0,0,0,0,0,0,0,0,0,0,0,0,0,0,0,0,0,0,0,0,0,0,0,0,0,0,0,0,0,0,0,0,0,0,0,0,0,0,0,0,0,0,0,0,0,0,0,0,0,0,0,0,0,0,0,0,0,0,0,0,0,0,0,0,0,0,0,0,0,74,
50,0,0,0,0,0,0,0,0,0,0,0,0,0,0,0,0,0,0,0,0,0,0,0,0,0,0,0,0,0,0,0,0,0,0,0,0,0,0,0,0,0,0,0,0,0,0,0,0,0,0,0,0,0,0,0,0,0,0,0,0,0,0,0,0,0,0,0,0,0,0,0,0,0,0,0,0,0,0,0,0,0,0,0,0,0,0,0,0,0,0,0,0,0,0,0,0,0,0,0,0,0,0,0,0,0,0,0,0,0,0,0,0,0,0,0,0,0,0,74,
50,0,0,0,0,0,0,0,0,0,0,0,0,0,0,0,0,0,0,0,0,0,0,0,0,0,0,0,0,0,0,0,0,0,0,0,0,0,0,0,0,0,0,0,0,0,0,0,0,0,0,0,0,0,0,0,0,0,0,0,0,0,0,0,0,0,0,0,0,0,0,0,0,0,0,0,0,0,0,0,0,0,0,0,0,0,0,0,0,0,0,0,0,0,0,0,0,0,0,0,0,0,0,0,0,0,0,0,0,0,0,0,0,0,0,0,0,0,0,74,
50,0,0,0,0,0,0,0,0,0,0,0,0,0,0,0,0,0,0,0,0,0,0,0,0,0,0,0,0,0,0,0,0,0,0,0,0,0,0,0,0,0,0,0,0,0,0,0,0,0,0,0,0,0,0,0,0,0,0,0,0,0,0,0,0,0,0,0,0,0,0,0,0,0,0,0,0,0,0,0,0,0,0,0,0,0,0,0,0,0,0,0,0,0,0,0,0,0,0,0,0,0,0,0,0,0,0,0,0,0,0,0,0,0,0,0,0,0,0,74,
50,0,0,0,0,0,0,0,0,0,0,0,0,0,0,0,0,0,0,0,0,0,0,0,0,0,0,0,0,0,0,0,0,0,0,0,0,0,0,0,0,0,0,0,0,0,0,0,0,0,0,0,0,0,0,0,0,0,0,0,0,0,0,0,0,0,0,0,0,0,0,0,0,0,0,0,0,0,0,0,0,0,0,0,0,0,0,0,0,0,0,0,0,0,0,0,0,0,0,0,0,0,0,0,0,0,0,0,0,0,0,0,0,0,0,0,0,0,0,74,
50,0,0,0,0,0,0,0,0,0,0,0,0,0,0,0,0,0,0,0,0,0,0,0,0,0,0,0,0,0,0,0,0,0,0,0,0,0,0,0,0,0,0,0,0,0,0,0,0,0,0,0,0,0,0,0,0,0,0,0,0,0,0,0,0,0,0,0,0,0,0,0,0,0,0,0,0,0,0,0,0,0,0,0,0,0,0,0,0,0,0,0,0,0,0,0,0,0,0,0,0,0,0,0,0,0,0,0,0,0,0,0,0,0,0,0,0,0,0,74,
50,0,0,0,0,0,0,0,0,0,0,0,0,0,0,0,0,0,0,0,0,0,0,0,0,0,0,0,0,0,0,0,0,0,0,0,0,0,0,0,0,0,0,0,0,0,0,0,0,0,0,0,0,0,0,0,0,0,0,0,0,0,0,0,0,0,0,0,0,0,0,0,0,0,0,0,0,0,0,0,0,0,0,0,0,0,0,0,0,0,0,0,0,0,0,0,0,0,0,0,0,0,0,0,0,0,0,0,0,0,0,0,0,0,0,0,0,0,0,74,
50,0,0,0,0,0,0,0,0,0,0,0,0,0,0,0,0,0,0,0,0,0,0,0,0,0,0,0,0,0,0,0,0,0,0,0,0,0,0,0,0,0,0,0,0,0,0,0,0,0,0,0,0,0,0,0,0,0,0,0,0,0,0,0,0,0,0,0,0,0,0,0,0,0,0,0,0,0,0,0,0,0,0,0,0,0,0,0,0,0,0,0,0,0,0,0,0,0,0,0,0,0,0,0,0,0,0,0,0,0,0,0,0,0,0,0,0,0,0,74,
50,0,0,0,0,0,0,0,0,0,0,0,0,0,0,0,0,0,0,0,0,0,0,0,0,0,0,0,0,0,0,0,0,0,0,0,0,0,0,0,0,0,0,0,0,0,0,0,0,0,0,0,0,0,0,0,0,0,0,0,0,0,0,0,0,0,0,0,0,0,0,0,0,0,0,0,0,0,0,0,0,0,0,0,0,0,0,0,0,0,0,0,0,0,0,0,0,0,0,0,0,0,0,0,0,0,0,0,0,0,0,0,0,0,0,0,0,0,0,74,
50,0,0,0,0,0,0,0,0,0,0,0,0,0,0,0,0,0,0,0,0,0,0,0,0,0,0,0,0,0,0,0,0,0,0,0,0,0,0,0,0,0,0,0,0,0,0,0,0,0,0,0,0,0,0,0,0,0,0,0,0,0,0,0,0,0,0,0,0,0,0,0,0,0,0,0,0,0,0,0,0,0,0,0,0,0,0,0,0,0,0,0,0,0,0,0,0,0,0,0,0,0,0,0,0,0,0,0,0,0,0,0,0,0,0,0,0,0,0,74,
50,0,0,0,0,0,0,0,0,0,0,0,0,0,0,0,0,0,0,0,0,0,0,0,0,0,0,0,0,0,0,0,0,0,0,0,0,0,0,0,0,0,0,0,0,0,0,0,0,0,0,0,0,0,0,0,0,0,0,0,0,0,0,0,0,0,0,0,0,0,0,0,0,0,0,0,0,0,0,0,0,0,0,0,0,0,0,0,0,0,0,0,0,0,0,0,0,0,0,0,0,0,0,0,0,0,0,0,0,0,0,0,0,0,0,0,0,0,0,74,
50,0,0,0,0,0,0,0,0,0,0,0,0,0,0,0,0,0,0,0,0,0,0,0,0,0,0,0,0,0,0,0,0,0,0,0,0,0,0,0,0,0,0,0,0,0,0,0,0,0,0,0,0,0,0,0,0,0,0,0,0,0,0,0,0,0,0,0,0,0,0,0,0,0,0,0,0,0,0,0,0,0,0,0,0,0,0,0,0,0,0,0,0,0,0,0,0,0,0,0,0,0,0,0,0,0,0,0,0,0,0,0,0,0,0,0,0,0,0,74,
50,0,0,0,0,0,0,0,0,0,0,0,0,0,0,0,0,0,0,0,0,0,0,0,0,0,0,0,0,0,0,0,0,0,0,0,0,0,0,0,0,0,0,0,0,0,0,0,0,0,0,0,0,0,0,0,0,0,0,0,0,0,0,0,0,0,0,0,0,0,0,0,0,0,0,0,0,0,0,0,0,0,0,0,0,0,0,0,0,0,0,0,0,0,0,0,0,0,0,0,0,0,0,0,0,0,0,0,0,0,0,0,0,0,0,0,0,0,0,74,
50,0,0,0,0,0,0,0,0,0,0,0,0,0,0,0,0,0,0,0,0,0,0,0,0,0,0,0,0,0,0,0,0,0,0,0,0,0,0,0,0,0,0,0,0,0,0,0,0,0,0,0,0,0,0,0,0,0,0,0,0,0,0,0,0,0,0,0,0,0,0,0,0,0,0,0,0,0,0,0,0,0,0,0,0,0,0,0,0,0,0,0,0,0,0,0,0,0,0,0,0,0,0,0,0,0,0,0,0,0,0,0,0,0,0,0,0,0,0,74,
50,0,0,0,0,0,0,0,0,0,0,0,0,0,0,0,0,0,0,0,0,0,0,0,0,0,0,0,0,0,0,0,0,0,0,0,0,0,0,0,0,0,0,0,0,0,0,0,0,0,0,0,0,0,0,0,0,0,0,0,0,0,0,0,0,0,0,0,0,0,0,0,0,0,0,0,0,0,0,0,0,0,0,0,0,0,0,0,0,0,0,0,0,0,0,0,0,0,0,0,0,0,0,0,0,0,0,0,0,0,0,0,0,0,0,0,0,0,0,74,
50,0,0,0,0,0,0,0,0,0,0,0,0,0,0,0,0,0,0,0,0,0,0,0,0,0,0,0,0,0,0,0,0,0,0,0,0,0,0,0,0,0,0,0,0,0,0,0,0,0,0,0,0,0,0,0,0,0,0,0,0,0,0,0,0,0,0,0,0,0,0,0,0,0,0,0,0,0,0,0,0,0,0,0,0,0,0,0,0,0,0,0,0,0,0,0,0,0,0,0,0,0,0,0,0,0,0,0,0,0,0,0,0,0,0,0,0,0,0,74,
50,0,0,0,0,0,0,0,0,0,0,0,0,0,0,0,0,0,0,0,0,0,0,0,0,0,0,0,0,0,0,0,0,0,0,0,0,0,0,0,0,0,0,0,0,0,0,0,0,0,0,0,0,0,0,0,0,0,0,0,0,0,0,0,0,0,0,0,0,0,0,0,0,0,0,0,0,0,0,0,0,0,0,0,0,0,0,0,0,0,0,0,0,0,0,0,0,0,0,0,0,0,0,0,0,0,0,0,0,0,0,0,0,0,0,0,0,0,0,74,
50,0,0,0,0,0,0,0,0,0,0,0,0,0,0,0,0,0,0,0,0,0,0,0,0,0,0,0,0,0,0,0,0,0,0,0,0,0,0,0,0,0,0,0,0,0,0,0,0,0,0,0,0,0,0,0,0,0,0,0,0,0,0,0,0,0,0,0,0,0,0,0,0,0,0,0,0,0,0,0,0,0,0,0,0,0,0,0,0,0,0,0,0,0,0,0,0,0,0,0,0,0,0,0,0,0,0,0,0,0,0,0,0,0,0,0,0,0,0,74,
50,0,0,0,0,0,0,0,0,0,0,0,0,0,0,0,0,0,0,0,0,0,0,0,0,0,0,0,0,0,0,0,0,0,0,0,0,0,0,0,0,0,0,0,0,0,0,0,0,0,0,0,0,0,0,0,0,0,0,0,0,0,0,0,0,0,0,0,0,0,0,0,0,0,0,0,0,0,0,0,0,0,0,0,0,0,0,0,0,0,0,0,0,0,0,0,0,0,0,0,0,0,0,0,0,0,0,0,0,0,0,0,0,0,0,0,0,0,0,74,
50,0,0,0,0,0,0,0,0,0,0,0,0,0,0,0,0,0,0,0,0,0,0,0,0,0,0,0,0,0,0,0,0,0,0,0,0,0,0,0,0,0,0,0,0,0,0,0,0,0,0,0,0,0,0,0,0,0,0,0,0,0,0,0,0,0,0,0,0,0,0,0,0,0,0,0,0,0,0,0,0,0,0,0,0,0,0,0,0,0,0,0,0,0,0,0,0,0,0,0,0,0,0,0,0,0,0,0,0,0,0,0,0,0,0,0,0,0,0,74,
50,0,0,0,0,0,0,0,0,0,0,0,0,0,0,0,0,0,0,0,0,0,0,0,0,0,0,0,0,0,0,0,0,0,0,0,0,0,0,0,0,0,0,0,0,0,0,0,0,0,0,0,0,0,0,0,0,0,0,0,0,0,0,0,0,0,0,0,0,0,0,0,0,0,0,0,0,0,0,0,0,0,0,0,0,0,0,0,0,0,0,0,0,0,0,0,0,0,0,0,0,0,0,0,0,0,0,0,0,0,0,0,0,0,0,0,0,0,0,74,
50,0,0,0,0,0,0,0,0,0,0,0,0,0,0,0,0,0,0,0,0,0,0,0,0,0,0,0,0,0,0,0,0,0,0,0,0,0,0,0,0,0,0,0,0,0,0,0,0,0,0,0,0,0,0,0,0,0,0,0,0,0,0,0,0,0,0,0,0,0,0,0,0,0,0,0,0,0,0,0,0,0,0,0,0,0,0,0,0,0,0,0,0,0,0,0,0,0,0,0,0,0,0,0,0,0,0,0,0,0,0,0,0,0,0,0,0,0,0,74,
50,0,0,0,0,0,0,0,0,0,0,0,0,0,0,0,0,0,0,0,0,0,0,0,0,0,0,0,0,0,0,0,0,0,0,0,0,0,0,0,0,0,0,0,0,0,0,0,0,0,0,0,0,0,0,0,0,0,0,0,0,0,0,0,0,0,0,0,0,0,0,0,0,0,0,0,0,0,0,0,0,0,0,0,0,0,0,0,0,0,0,0,0,0,0,0,0,0,0,0,0,0,0,0,0,0,0,0,0,0,0,0,0,0,0,0,0,0,0,74,
50,0,0,0,0,0,0,0,0,0,0,0,0,0,0,0,0,0,0,0,0,0,0,0,0,0,0,0,0,0,0,0,0,0,0,0,0,0,0,0,0,0,0,0,0,0,0,0,0,0,0,0,0,0,0,0,0,0,0,0,0,0,0,0,0,0,0,0,0,0,0,0,0,0,0,0,0,0,0,0,0,0,0,0,0,0,0,0,0,0,0,0,0,0,0,0,0,0,0,0,0,0,0,0,0,0,0,0,0,0,0,0,0,0,0,0,0,0,0,74,
50,0,0,0,0,0,0,0,0,0,0,0,0,0,0,0,0,0,0,0,0,0,0,0,0,0,0,0,0,0,0,0,0,0,0,0,0,0,0,0,0,0,0,0,0,0,0,0,0,0,0,0,0,0,0,0,0,0,0,0,0,0,0,0,0,0,0,0,0,0,0,0,0,0,0,0,0,0,0,0,0,0,0,0,0,0,0,0,0,0,0,0,0,0,0,0,0,0,0,0,0,0,0,0,0,0,0,0,0,0,0,0,0,0,0,0,0,0,0,74,
50,0,0,0,0,0,0,0,0,0,0,0,0,0,0,0,0,0,0,0,0,0,0,0,0,0,0,0,0,0,0,0,0,0,0,0,0,0,0,0,0,0,0,0,0,0,0,0,0,0,0,0,0,0,0,0,0,0,0,0,0,0,0,0,0,0,0,0,0,0,0,0,0,0,0,0,0,0,0,0,0,0,0,0,0,0,0,0,0,0,0,0,0,0,0,0,0,0,0,0,0,0,0,0,0,0,0,0,0,0,0,0,0,0,0,0,0,0,0,74,
50,0,0,0,0,0,0,0,0,0,0,0,0,0,0,0,0,0,0,0,0,0,0,0,0,0,0,0,0,0,0,0,0,0,0,0,0,0,0,0,0,0,0,0,0,0,0,0,0,0,0,0,0,0,0,0,0,0,0,0,0,0,0,0,0,0,0,0,0,0,0,0,0,0,0,0,0,0,0,0,0,0,0,0,0,0,0,0,0,0,0,0,0,0,0,0,0,0,0,0,0,0,0,0,0,0,0,0,0,0,0,0,0,0,0,0,0,0,0,74,
50,0,0,0,0,0,0,0,0,0,0,0,0,0,0,0,0,0,0,0,0,0,0,0,0,0,0,0,0,0,0,0,0,0,0,0,0,0,0,0,0,0,0,0,0,0,0,0,0,0,0,0,0,0,0,0,0,0,0,0,0,0,0,0,0,0,0,0,0,0,0,0,0,0,0,0,0,0,0,0,0,0,0,0,0,0,0,0,0,0,0,0,0,0,0,0,0,0,0,0,0,0,0,0,0,0,0,0,0,0,0,0,0,0,0,0,0,0,0,74,
50,0,0,0,0,0,0,0,0,0,0,0,0,0,0,0,0,0,0,0,0,0,0,0,0,0,0,0,0,0,0,0,0,0,0,0,0,0,0,0,0,0,0,0,0,0,0,0,0,0,0,0,0,0,0,0,0,0,0,0,0,0,0,0,0,0,0,0,0,0,0,0,0,0,0,0,0,0,0,0,0,0,0,0,0,0,0,0,0,0,0,0,0,0,0,0,0,0,0,0,0,0,0,0,0,0,0,0,0,0,0,0,0,0,0,0,0,0,0,74,
50,0,0,0,0,0,0,0,0,0,0,0,0,0,0,0,0,0,0,0,0,0,0,0,0,0,0,0,0,0,0,0,0,0,0,0,0,0,0,0,0,0,0,0,0,0,0,0,0,0,0,0,0,0,0,0,0,0,0,0,0,0,0,0,0,0,0,0,0,0,0,0,0,0,0,0,0,0,0,0,0,0,0,0,0,0,0,0,0,0,0,0,0,0,0,0,0,0,0,0,0,0,0,0,0,0,0,0,0,0,0,0,0,0,0,0,0,0,0,74,
50,0,0,0,0,0,0,0,0,0,0,0,0,0,0,0,0,0,0,0,0,0,0,0,0,0,0,0,0,0,0,0,0,0,0,0,0,0,0,0,0,0,0,0,0,0,0,0,0,0,0,0,0,0,0,0,0,0,0,0,0,0,0,0,0,0,0,0,0,0,0,0,0,0,0,0,0,0,0,0,0,0,0,0,0,0,0,0,0,0,0,0,0,0,0,0,0,0,0,0,0,0,0,0,0,0,0,0,0,0,0,0,0,0,0,0,0,0,0,74,
50,0,0,0,0,0,0,0,0,0,0,0,0,0,0,0,0,0,0,0,0,0,0,0,0,0,0,0,0,0,0,0,0,0,0,0,0,0,0,0,0,0,0,0,0,0,0,0,0,0,0,0,0,0,0,0,0,0,0,0,0,0,0,0,0,0,0,0,0,0,0,0,0,0,0,0,0,0,0,0,0,0,0,0,0,0,0,0,0,0,0,0,0,0,0,0,0,0,0,0,0,0,0,0,0,0,0,0,0,0,0,0,0,0,0,0,0,0,0,74,
50,0,0,0,0,0,0,0,0,0,0,0,0,0,0,0,0,0,0,0,0,0,0,0,0,0,0,0,0,0,0,0,0,0,0,0,0,0,0,0,0,0,0,0,0,0,0,0,0,0,0,0,0,0,0,0,0,0,0,0,0,0,0,0,0,0,0,0,0,0,0,0,0,0,0,0,0,0,0,0,0,0,0,0,0,0,0,0,0,0,0,0,0,0,0,0,0,0,0,0,0,0,0,0,0,0,0,0,0,0,0,0,0,0,0,0,0,0,0,74,
50,0,0,0,0,0,0,0,0,0,0,0,0,0,0,0,0,0,0,0,0,0,0,0,0,0,0,0,0,0,0,0,0,0,0,0,0,0,0,0,0,0,0,0,0,0,0,0,0,0,0,0,0,0,0,0,0,0,0,0,0,0,0,0,0,0,0,0,0,0,0,0,0,0,0,0,0,0,0,0,0,0,0,0,0,0,0,0,0,0,0,0,0,0,0,0,0,0,0,0,0,0,0,0,0,0,0,0,0,0,0,0,0,0,0,0,0,0,0,74,
50,0,0,0,0,0,0,0,0,0,0,0,0,0,0,0,0,0,0,0,0,0,0,0,0,0,0,0,0,0,0,0,0,0,0,0,0,0,0,0,0,0,0,0,0,0,0,0,0,0,0,0,0,0,0,0,0,0,0,0,0,0,0,0,0,0,0,0,0,0,0,0,0,0,0,0,0,0,0,0,0,0,0,0,0,0,0,0,0,0,0,0,0,0,0,0,0,0,0,0,0,0,0,0,0,0,0,0,0,0,0,0,0,0,0,0,0,0,0,74,
50,0,0,0,0,0,0,0,0,0,0,0,0,0,0,0,0,0,0,0,0,0,0,0,0,0,0,0,0,0,0,0,0,0,0,0,0,0,0,0,0,0,0,0,0,0,0,0,0,0,0,0,0,0,0,0,0,0,0,0,0,0,0,0,0,0,0,0,0,0,0,0,0,0,0,0,0,0,0,0,0,0,0,0,0,0,0,0,0,0,0,0,0,0,0,0,0,0,0,0,0,0,0,0,0,0,0,0,0,0,0,0,0,0,0,0,0,0,0,74,
50,0,0,0,0,0,0,0,0,0,0,0,0,0,0,0,0,0,0,0,0,0,0,0,0,0,0,0,0,0,0,0,0,0,0,0,0,0,0,0,0,0,0,0,0,0,0,0,0,0,0,0,0,0,0,0,0,0,0,0,0,0,0,0,0,0,0,0,0,0,0,0,0,0,0,0,0,0,0,0,0,0,0,0,0,0,0,0,0,0,0,0,0,0,0,0,0,0,0,0,0,0,0,0,0,0,0,0,0,0,0,0,0,0,0,0,0,0,0,74,
50,0,0,0,0,0,0,0,0,0,0,0,0,0,0,0,0,0,0,0,0,0,0,0,0,0,0,0,0,0,0,0,0,0,0,0,0,0,0,0,0,0,0,0,0,0,0,0,0,0,0,0,0,0,0,0,0,0,0,0,0,0,0,0,0,0,0,0,0,0,0,0,0,0,0,0,0,0,0,0,0,0,0,0,0,0,0,0,0,0,0,0,0,0,0,0,0,0,0,0,0,0,0,0,0,0,0,0,0,0,0,0,0,0,0,0,0,0,0,74,
50,0,0,0,0,0,0,0,0,0,0,0,0,0,0,0,0,0,0,0,0,0,0,0,0,0,0,0,0,0,0,0,0,0,0,0,0,0,0,0,0,0,0,0,0,0,0,0,0,0,0,0,0,0,0,0,0,0,0,0,0,0,0,0,0,0,0,0,0,0,0,0,0,0,0,0,0,0,0,0,0,0,0,0,0,0,0,0,0,0,0,0,0,0,0,0,0,0,0,0,0,0,0,0,0,0,0,0,0,0,0,0,0,0,0,0,0,0,0,74,
50,0,0,0,0,0,0,0,0,0,0,0,0,0,0,0,0,0,0,0,0,0,0,0,0,0,0,0,0,0,0,0,0,0,0,0,0,0,0,0,0,0,0,0,0,0,0,0,0,0,0,0,0,0,0,0,0,0,0,0,0,0,0,0,0,0,0,0,0,0,0,0,0,0,0,0,0,0,0,0,0,0,0,0,0,0,0,0,0,0,0,0,0,0,0,0,0,0,0,0,0,0,0,0,0,0,0,0,0,0,0,0,0,0,0,0,0,0,0,74,
50,0,0,0,0,0,0,0,0,0,0,0,0,0,0,0,0,0,0,0,0,0,0,0,0,0,0,0,0,0,0,0,0,0,0,0,0,0,0,0,0,0,0,0,0,0,0,0,0,0,0,0,0,0,0,0,0,0,0,0,0,0,0,0,0,0,0,0,0,0,0,0,0,0,0,0,0,0,0,0,0,0,0,0,0,0,0,0,0,0,0,0,0,0,0,0,0,0,0,0,0,0,0,0,0,0,0,0,0,0,0,0,0,0,0,0,0,0,0,74,
50,0,0,0,0,0,0,0,0,0,0,0,0,0,0,0,0,0,0,0,0,0,0,0,0,0,0,0,0,0,0,0,0,0,0,0,0,0,0,0,0,0,0,0,0,0,0,0,0,0,0,0,0,0,0,0,0,0,0,0,0,0,0,0,0,0,0,0,0,0,0,0,0,0,0,0,0,0,0,0,0,0,0,0,0,0,0,0,0,0,0,0,0,0,0,0,0,0,0,0,0,0,0,0,0,0,0,0,0,0,0,0,0,0,0,0,0,0,0,74,
50,0,0,0,0,0,0,0,0,0,0,0,0,0,0,0,0,0,0,0,0,0,0,0,0,0,0,0,0,0,0,0,0,0,0,0,0,0,0,0,0,0,0,0,0,0,0,0,0,0,0,0,0,0,0,0,0,0,0,0,0,0,0,0,0,0,0,0,0,0,0,0,0,0,0,0,0,0,0,0,0,0,0,0,0,0,0,0,0,0,0,0,0,0,0,0,0,0,0,0,0,0,0,0,0,0,0,0,0,0,0,0,0,0,0,0,0,0,0,74,
122,122,122,122,122,122,122,122,122,122,122,122,122,122,122,122,122,122,122,122,122,122,122,122,122,122,122,122,122,122,122,122,122,122,122,122,122,122,122,122,122,122,122,122,122,122,122,122,122,122,122,122,122,122,122,122,122,122,122,122,122,122,122,122,122,122,122,122,122,122,122,122,122,122,122,122,122,122,122,122,122,122,122,122,122,122,122,122,122,122,122,122,122,122,122,122,122,122,122,122,122,122,122,122,122,122,122,122,122,122,122,122,122,122,122,122,122,122,122,122
</data>
 </layer>
</map>
